!!!OTL: Die erzwungene Ehe.
!!!OTL-incipit: Es hat sich ein Bauer ein Toechterlein fein,
!!!ARE: Europa, Mitteleuropa, Deutschland / France, Lothringen
!!!YOR: 2, S. 250
!!    1933 gedruckt in Heidelberg
!!!SCT: Q0050D
!!!TXL: @@DE
!!!YEM: Copyright 1995, estate of Helmut Schaffrath.
**kern	**text
*ICvox	*
*M3/4	*
*k[b-]	*
*F:	*
!LO:TX:a:t=F	!
{4c	Es
=1	=1
4f	hat
4f	ſich
4f	ein
=2	=2
4f	Bau-
4f	-er
4g	ein
=3	=3
4e	Töch-
4e	-ter-
4d	-lein
=4	=4
4c	fein,
4r}	.
{4c	ein
=5	=5
4f	Töch-
4f	-ter-
4g	-lein
=6	=6
4a	fein,
4r}	.
{4a	die
=7	=7
4g	woll-
4g	-te
4cc	ſo
=8	=8
4b-	ger-
4a	-ne
4g	ge-
=9	=9
4d	-hei-
4d	-ra-
4g	-tet
=10	=10
4f	ſein.
4r}	.
==	==
!!!AGN: Ballade, Hochzeit; Schwank
!! Zweite Zeile = Kurzzeile aus Textwiederholung.
!!!ONB: ESAC (Essen Associative Code) Database: BALLADE
!!!AMT: simple triple
!!!AIN: vox
!!!EED: Helmut Schaffrath
!!!EEV: 1.0
!!!source: Deutsche Volkslieder mit ihren Melodien. Herausgegeben vom Deutschen Volksliedarchiv. Zweiter Band Balladen. Berlin 1939.
!!!page: 250
!!!ENC: Anna Maria Matuszewska
!!!EEV: 2025/02/17
*-	*-
